source/img/internetexplorer.svg

<?xml version="1.0" encoding="UTF-8" standalone="no"?>
<svg width="256px" height="252px" viewBox="0 0 256 252" version="1.1" xmlns="http://www.w3.org/2000/svg" xmlns:xlink="http://www.w3.org/1999/xlink" preserveAspectRatio="xMidYMid">
    <g>
        <path d="M256,131.592659 C256,111.354947 250.767631,92.3421368 241.5922,75.8208743 C280.701983,-12.6928751 199.685538,0.27175991 195.174751,1.15435696 C178.010624,4.51299652 162.131033,9.90518739 147.483501,16.7405437 C145.323523,16.6188884 143.150426,16.5520973 140.960631,16.5520973 C86.2956713,16.5520973 40.5377853,54.6802897 28.8266767,105.793393 C57.6386994,73.4700651 77.8024638,60.4279047 89.8773456,55.2086552 C87.9499445,56.9309121 86.0630951,58.6722522 84.2072559,60.426712 C83.589438,61.0099417 82.9942813,61.6015203 82.3848123,62.188328 C81.1611034,63.3655217 79.9397799,64.543908 78.7470812,65.7330286 C78.0374255,66.4402989 77.3468529,67.1535328 76.6479315,67.8655739 C75.5900077,68.9425808 74.5344694,70.0183951 73.5015923,71.1013655 C72.7680826,71.8706562 72.0524634,72.6423322 71.3320733,73.4128156 C70.3671801,74.4456927 69.4082503,75.4797625 68.467211,76.5174103 C67.7360867,77.3236747 67.0168894,78.129939 66.2988848,78.9385887 C65.4067461,79.942841 64.5229564,80.9470934 63.6510936,81.9537311 C62.9283182,82.7886202 62.2115063,83.6235093 61.5030433,84.4595911 C60.6765031,85.4352186 59.8606971,86.4108461 59.0532401,87.3864737 C58.3388136,88.2499876 57.6267725,89.1123087 56.927851,89.9746299 C56.17168,90.9073203 55.4322068,91.838818 54.6939263,92.769123 C53.9783071,93.6708032 53.2626879,94.5712907 52.5637664,95.4717782 C51.8982406,96.3293286 51.2517979,97.1833009 50.6005844,98.0384659 C49.865882,99.0045518 49.1252161,99.9706378 48.4095968,100.931953 C47.8979291,101.62014 47.4065372,102.301171 46.9044111,102.986973 C42.3590363,109.189006 38.2060594,115.27177 34.4550219,121.114801 C34.4454803,121.129113 34.4359387,121.143425 34.4275898,121.157738 C33.4400353,122.696319 32.487069,124.212239 31.553186,125.715039 C31.5030926,125.796143 31.4506139,125.878439 31.4005205,125.960735 C30.4654447,127.469499 29.5625718,128.952024 28.6823602,130.419043 C28.65135,130.470329 28.6191471,130.522808 28.588137,130.574094 C26.2218227,134.523119 24.0272571,138.330214 22.0509553,141.911888 C11.6899816,160.688544 6.6460588,173.807037 6.42779493,174.585869 C-26.2903161,291.556217 75.8237767,242.1606 90.0729482,234.787336 C105.415824,242.366937 122.688487,246.63322 140.960631,246.63322 C190.982415,246.63322 233.541483,214.703483 249.382908,170.114442 L188.936937,170.114442 C179.992889,185.224742 162.773898,195.459289 142.991797,195.459289 C114.008026,195.459289 90.513054,173.499321 90.513054,146.409555 L255.052997,146.409555 C255.676779,141.557656 256,136.612728 256,131.592659 L256,131.592659 Z M234.509955,18.3864679 C244.41651,25.0727369 252.362269,35.5732563 238.716603,70.9355804 C225.62912,49.8880262 205.938857,33.377498 182.535723,24.3022535 C193.181752,19.1605294 219.546357,8.28550254 234.509955,18.3864679 L234.509955,18.3864679 Z M23.9795491,234.552375 C15.9109424,226.277431 14.4844747,206.123208 32.2890811,169.39763 C41.2748731,195.232676 59.2059055,216.880158 82.3824269,230.618854 C70.8561865,236.962819 40.2563084,251.246579 23.9795491,234.552375 L23.9795491,234.552375 Z M90.2590092,114.950934 C91.1785799,88.6221096 114.092707,67.5411599 142.246361,67.5411599 C170.398821,67.5411599 193.314141,88.6221096 194.233712,114.950934 L90.2590092,114.950934 L90.2590092,114.950934 Z" fill="#1EBBEE"></path>
    </g>
</svg>

<svg width="256" height="252" xmlns="http://www.w3.org/2000/svg" preserveAspectRatio="xMidYMid"><path d="M256 131.5927c0-20.2378-5.2324-39.2506-14.4078-55.7718C280.702-12.693 199.6855.2718 195.1748 1.1544c-17.1642 3.3586-33.0438 8.7508-47.6913 15.5861-2.16-.1216-4.333-.1884-6.5229-.1884-54.665 0-100.4228 38.1282-112.134 89.2413C57.6388 73.47 77.8026 60.4279 89.8774 55.2087c-1.9274 1.7222-3.8142 3.4636-5.67 5.218-.6179.5832-1.213 1.1748-1.8225 1.7616-1.2237 1.1772-2.445 2.3556-3.6377 3.5447-.7097.7073-1.4002 1.4205-2.0992 2.1326-1.0579 1.077-2.1134 2.1528-3.1463 3.2358-.7335.7693-1.4491 1.541-2.1695 2.3114-.965 1.0329-1.9238 2.067-2.8649 3.1046-.7311.8063-1.4503 1.6125-2.1683 2.4212a319.3075 319.3075 0 0 0-2.6478 3.0151 311.8845 311.8845 0 0 0-2.148 2.5059 331.8404 331.8404 0 0 0-2.4499 2.9269c-.7144.8635-1.4264 1.7258-2.1253 2.5881-.7562.9327-1.4957 1.8642-2.234 2.7945-.7156.9017-1.4312 1.8022-2.1301 2.7027-.6656.8575-1.312 1.7115-1.9632 2.5667-.7347.966-1.4754 1.9321-2.191 2.8935-.5117.6881-1.003 1.3692-1.5052 2.055-4.5454 6.202-8.6983 12.2848-12.4494 18.1278-.0095.0143-.019.0286-.0274.043-.9876 1.5385-1.9405 3.0544-2.8744 4.5572-.0501.0811-.1026.1634-.1527.2457a361.8638 361.8638 0 0 0-2.7181 4.4583c-.031.0513-.0633.1038-.0943.155-2.3663 3.9491-4.5608 7.7562-6.5371 11.3379-10.361 18.7766-15.405 31.8951-15.6232 32.674-32.7181 116.9703 69.396 67.5747 83.6451 60.2014 15.343 7.5796 32.6156 11.846 50.8877 11.846 50.0218 0 92.5809-31.9298 108.4223-76.5189h-60.446c-8.944 15.1103-26.163 25.3449-45.9451 25.3449-28.9838 0-52.4787-21.96-52.4787-49.0497H255.053c.6238-4.852.947-9.7969.947-14.817zM234.51 18.3865c9.9065 6.6862 17.8523 17.1868 4.2066 52.549-13.0875-21.0475-32.7777-37.558-56.1809-46.6332 10.646-5.1418 37.0107-16.0168 51.9743-5.9158zM23.9795 234.5524c-8.0686-8.275-9.495-28.4292 8.3096-65.1548 8.9858 25.835 26.9168 47.4826 50.0933 61.2213-11.5262 6.344-42.126 20.6277-58.4029 3.9335zM90.259 114.9509c.9196-26.3288 23.8337-47.4097 51.9874-47.4097 28.1524 0 51.0677 21.081 51.9873 47.4097H90.259z" fill="#1EBBEE"/></svg>
